;START_OF_HEADER
;HEADER_VERSION:0.1
;FLAVOR:Griffin
;GENERATOR.NAME:Cura_SteamEngine
;GENERATOR.VERSION:3.5.1
;GENERATOR.BUILD_DATE:2018-10-16
;TARGET_MACHINE.NAME:Ultimaker 3
;EXTRUDER_TRAIN.0.INITIAL_TEMPERATURE:210
;EXTRUDER_TRAIN.0.MATERIAL.VOLUME_USED:41368
;EXTRUDER_TRAIN.0.MATERIAL.GUID:506c9f0d-e3aa-4bd4-b2d2-23e2425b1aa9
;EXTRUDER_TRAIN.0.NOZZLE.DIAMETER:0.4
;EXTRUDER_TRAIN.0.NOZZLE.NAME:AA 0.4
;BUILD_PLATE.TYPE:glass
;BUILD_PLATE.INITIAL_TEMPERATURE:60
;PRINT.TIME:13778
;PRINT.SIZE.MIN.X:9
;PRINT.SIZE.MIN.Y:6
;PRINT.SIZE.MIN.Z:0.27
;PRINT.SIZE.MAX.X:153.43
;PRINT.SIZE.MAX.Y:135.17
;PRINT.SIZE.MAX.Z:58.07
;END_OF_HEADER
;Generated with Cura_SteamEngine 3.5.1
T0
M82 ;absolute extrusion mode

G92 E0
M109 S210
G0 F15000 X9 Y6 Z2
G280
G1 F1500 E-6.5
;LAYER_COUNT:290
;LAYER:0
M107
M204 S625
M205 X6 Y6
G0 F4285.7 X80.961 Y64.198 Z0.27
M204 S500
M205 X5 Y5
;TYPE:SKIRT
G1 F1500 E0
G1 F1200 X81.6 Y63.463 E0.01731
G1 X81.723 Y63.34 E0.0204
G1 X82.277 Y62.842 E0.03365
G1 X82.881 Y62.407 E0.04688
G1 X83.528 Y62.04 E0.0601
G1 X84.21 Y61.743 E0.07332
G1 X84.921 Y61.522 E0.08656
G1 X85.651 Y61.378 E0.09979
G1 X86.623 Y61.31 E0.11711
G1 X91.377 Y61.31 E0.20161
G1 X92.12 Y61.35 E0.21484
G1 X92.855 Y61.469 E0.22807
G1 X92.995 Y61.507 E0.23065
G1 X93.651 Y61.378 E0.24254
G1 X94.623 Y61.31 E0.25986
G1 X99.363 Y61.31 E0.34412
G1 X100.106 Y61.35 E0.35734
G1 X100.841 Y61.469 E0.37058
G1 X101.559 Y61.667 E0.38382
G1 X102.251 Y61.94 E0.39704
G1 X102.91 Y62.286 E0.41027
G1 X103.528 Y62.701 E0.42351
G1 X104.263 Y63.34 E0.44082
G1 X104.386 Y63.463 E0.44391
G1 X104.884 Y64.017 E0.45715
G1 X105.319 Y64.621 E0.47038
G1 X105.686 Y65.268 E0.48361
G1 X105.983 Y65.95 E0.49683
G1 X106.204 Y66.661 E0.51006
G1 X106.348 Y67.391 E0.52329
G1 X106.416 Y68.361 E0.54058
G1 X106.429 Y105.37 E1.19845
G1 X109.369 Y108.31 E1.27235
G1 X146.377 Y108.31 E1.93021
G1 X147.12 Y108.35 E1.94343
G1 X147.855 Y108.469 E1.95667
G1 X148.573 Y108.667 E1.96991
G1 X149.265 Y108.94 E1.98313
G1 X149.924 Y109.286 E1.99636
G1 X150.542 Y109.701 E2.0096
G1 X151.277 Y110.34 E2.02691
G1 X151.4 Y110.463 E2.03
G1 X151.898 Y111.017 E2.04324
G1 X152.333 Y111.621 E2.05648
G1 X152.7 Y112.268 E2.0697
G1 X152.997 Y112.95 E2.08292
G1 X153.218 Y113.661 E2.09616
G1 X153.362 Y114.391 E2.10938
G1 X153.43 Y115.363 E2.1267
G1 X153.43 Y120.117 E2.21121
G1 X153.39 Y120.86 E2.22444
G1 X153.271 Y121.595 E2.23767
G1 X153.233 Y121.735 E2.24025
G1 X153.362 Y122.391 E2.25213
G1 X153.43 Y123.363 E2.26946
G1 X153.43 Y128.117 E2.35396
G1 X153.39 Y128.86 E2.36719
G1 X153.271 Y129.595 E2.38042
G1 X153.073 Y130.313 E2.39366
G1 X152.8 Y131.005 E2.40689
G1 X152.454 Y131.664 E2.42012
G1 X152.039 Y132.282 E2.43335
G1 X151.4 Y133.017 E2.45066
G1 X151.277 Y133.14 E2.45376
G1 X150.723 Y133.638 E2.467
G1 X150.119 Y134.073 E2.48023
G1 X149.472 Y134.44 E2.49345
G1 X148.79 Y134.737 E2.50667
G1 X148.079 Y134.958 E2.51991
G1 X147.349 Y135.102 E2.53314
G1 X146.377 Y135.17 E2.55046
G1 X86.623 Y135.17 E3.61264
G1 X85.88 Y135.13 E3.62587
G1 X85.145 Y135.011 E3.6391
G1 X84.427 Y134.813 E3.65234
G1 X83.735 Y134.54 E3.66557
G1 X83.076 Y134.194 E3.6788
G1 X82.458 Y133.779 E3.69203
G1 X81.723 Y133.14 E3.70934
G1 X81.6 Y133.017 E3.71244
G1 X81.102 Y132.463 E3.72568
G1 X80.667 Y131.859 E3.73891
G1 X80.3 Y131.212 E3.75213
G1 X80.003 Y130.53 E3.76535
G1 X79.782 Y129.819 E3.77859
G1 X79.638 Y129.089 E3.79182
G1 X79.57 Y128.117 E3.80914
G1 X79.57 Y68.363 E4.87132
G1 X79.61 Y67.62 E4.88455
G1 X79.729 Y66.885 E4.89778
G1 X79.927 Y66.167 E4.91102
G1 X80.2 Y65.475 E4.92425
G1 X80.546 Y64.816 E4.93748
G1 X80.961 Y64.198 E4.95071
M204 S625
M205 X6 Y6
G0 F4285.7 X81.378 Y64.345
M204 S500
M205 X5 Y5
G1 F1200 X81.897 Y63.76 E4.96461
G1 X82.02 Y63.637 E4.9677
G1 X82.557 Y63.156 E4.98052
G1 X83.145 Y62.737 E4.99335
G1 X83.775 Y62.386 E5.00617
G1 X84.44 Y62.107 E5.01899
G1 X85.132 Y61.903 E5.03182
G1 X85.842 Y61.777 E5.04464
G1 X86.623 Y61.73 E5.05854
G1 X91.377 Y61.73 E5.14305
G1 X92.097 Y61.77 E5.15587
G1 X92.809 Y61.889 E5.1687
G1 X92.997 Y61.943 E5.17218
G1 X93.132 Y61.903 E5.17468
G1 X93.842 Y61.777 E5.1875
G1 X94.623 Y61.73 E5.20141
G1 X99.363 Y61.73 E5.28567
G1 X100.083 Y61.77 E5.29848
G1 X100.795 Y61.889 E5.31132
G1 X101.489 Y62.087 E5.32414
G1 X102.156 Y62.36 E5.33696
G1 X102.79 Y62.705 E5.34979
G1 X103.381 Y63.118 E5.3626
G1 X103.966 Y63.637 E5.3765
G1 X104.089 Y63.76 E5.3796
G1 X104.57 Y64.297 E5.39241
G1 X104.989 Y64.885 E5.40525
G1 X105.34 Y65.515 E5.41807
G1 X105.619 Y66.18 E5.43089
G1 X105.823 Y66.872 E5.44371
G1 X105.949 Y67.582 E5.45653
G1 X105.996 Y68.361 E5.4704
G1 X106.009 Y105.544 E6.13136
G1 X109.195 Y108.73 E6.21146
G1 X146.377 Y108.73 E6.8724
G1 X147.097 Y108.77 E6.88522
G1 X147.809 Y108.889 E6.89805
G1 X148.503 Y109.087 E6.91088
G1 X149.17 Y109.36 E6.92369
G1 X149.804 Y109.705 E6.93653
G1 X150.395 Y110.118 E6.94934
G1 X150.98 Y110.637 E6.96324
G1 X151.103 Y110.76 E6.96634
G1 X151.584 Y111.297 E6.97915
G1 X152.003 Y111.885 E6.99198
G1 X152.354 Y112.515 E7.0048
G1 X152.633 Y113.18 E7.01762
G1 X152.837 Y113.872 E7.03045
G1 X152.963 Y114.582 E7.04327
G1 X153.01 Y115.363 E7.05717
G1 X153.01 Y120.117 E7.14168
G1 X152.97 Y120.837 E7.1545
G1 X152.851 Y121.549 E7.16733
G1 X152.797 Y121.737 E7.17081
G1 X152.837 Y121.872 E7.17331
G1 X152.963 Y122.582 E7.18613
G1 X153.01 Y123.363 E7.20004
G1 X153.01 Y128.117 E7.28455
G1 X152.97 Y128.837 E7.29736
G1 X152.851 Y129.549 E7.3102
G1 X152.653 Y130.243 E7.32302
G1 X152.38 Y130.91 E7.33584
G1 X152.035 Y131.544 E7.34867
G1 X151.622 Y132.135 E7.36148
G1 X151.103 Y132.72 E7.37538
G1 X150.98 Y132.843 E7.37848
G1 X150.443 Y133.324 E7.39129
G1 X149.855 Y133.743 E7.40413
G1 X149.225 Y134.094 E7.41695
G1 X148.56 Y134.373 E7.42977
G1 X147.868 Y134.577 E7.44259
G1 X147.158 Y134.703 E7.45541
G1 X146.377 Y134.75 E7.46932
G1 X86.623 Y134.75 E8.5315
G1 X85.903 Y134.71 E8.54432
G1 X85.191 Y134.591 E8.55715
G1 X84.497 Y134.393 E8.56998
G1 X83.83 Y134.12 E8.58279
G1 X83.196 Y133.775 E8.59562
G1 X82.605 Y133.362 E8.60844
G1 X82.02 Y132.843 E8.62234
G1 X81.897 Y132.72 E8.62543
G1 X81.416 Y132.183 E8.63825
G1 X80.997 Y131.595 E8.65108
G1 X80.646 Y130.965 E8.6639
G1 X80.367 Y130.3 E8.67672
G1 X80.163 Y129.608 E8.68955
G1 X80.037 Y128.898 E8.70236
G1 X79.99 Y128.117 E8.71627
G1 X79.99 Y68.363 E9.77846
G1 X80.03 Y67.643 E9.79128
G1 X80.149 Y66.931 E9.80411
G1 X80.347 Y66.237 E9.81694
G1 X80.62 Y65.57 E9.82975
G1 X80.965 Y64.936 E9.84258
G1 X81.378 Y64.345 E9.8554
M204 S625
M205 X6 Y6
G0 F4285.7 X81.795 Y64.497
M204 S500
M205 X5 Y5
G1 F1200 X82.194 Y64.057 E9.86595
G1 X82.317 Y63.934 E9.86905
G1 X82.838 Y63.469 E9.88146
G1 X83.408 Y63.068 E9.89385
G1 X84.021 Y62.734 E9.90626
G1 X84.668 Y62.472 E9.91867
G1 X85.34 Y62.287 E9.93105
G1 X86.029 Y62.179 E9.94345
G1 X86.623 Y62.15 E9.95402
G1 X91.377 Y62.15 E10.03853
G1 X92.074 Y62.19 E10.05094
G1 X92.761 Y62.309 E10.06333
G1 X93.002 Y62.38 E10.0678
G1 X93.34 Y62.287 E10.07403
G1 X94.029 Y62.179 E10.08643
G1 X94.623 Y62.15 E10.097
G1 X99.363 Y62.15 E10.18126
G1 X100.06 Y62.19 E10.19367
G1 X100.747 Y62.309 E10.20606
G1 X101.416 Y62.507 E10.21847
G1 X102.059 Y62.779 E10.23088
G1 X102.665 Y63.123 E10.24326
G1 X103.229 Y63.535 E10.25568
G1 X103.669 Y63.934 E10.26624
G1 X103.792 Y64.057 E10.26933
G1 X104.257 Y64.578 E10.28174
G1 X104.658 Y65.148 E10.29413
G1 X104.992 Y65.761 E10.30654
G1 X105.254 Y66.408 E10.31895
G1 X105.439 Y67.08 E10.33134
G1 X105.547 Y67.769 E10.34374
G1 X105.576 Y68.361 E10.35427
G1 X105.589 Y105.718 E11.01833
G1 X109.021 Y109.15 E11.10461
G1 X146.377 Y109.15 E11.76865
G1 X147.074 Y109.19 E11.78106
G1 X147.761 Y109.309 E11.79345
G1 X148.43 Y109.507 E11.80585
G1 X149.073 Y109.779 E11.81826
G1 X149.679 Y110.123 E11.83065
G1 X150.243 Y110.535 E11.84306
G1 X150.683 Y110.934 E11.85362
G1 X150.806 Y111.057 E11.85672
G1 X151.271 Y111.578 E11.86913
G1 X151.672 Y112.148 E11.88152
G1 X152.006 Y112.761 E11.89393
G1 X152.268 Y113.408 E11.90633
G1 X152.453 Y114.08 E11.91872
G1 X152.561 Y114.769 E11.93112
G1 X152.59 Y115.363 E11.94169
G1 X152.59 Y120.117 E12.0262
G1 X152.55 Y120.814 E12.03861
G1 X152.431 Y121.501 E12.051
G1 X152.36 Y121.742 E12.05547
G1 X152.453 Y122.08 E12.0617
G1 X152.561 Y122.769 E12.0741
G1 X152.59 Y123.363 E12.08467
G1 X152.59 Y128.117 E12.16918
G1 X152.55 Y128.814 E12.18159
G1 X152.431 Y129.501 E12.19398
G1 X152.233 Y130.17 E12.20638
G1 X151.961 Y130.813 E12.21879
G1 X151.617 Y131.419 E12.23118
G1 X151.205 Y131.983 E12.2436
G1 X150.806 Y132.423 E12.25416
G1 X150.683 Y132.546 E12.25725
G1 X150.162 Y133.011 E12.26966
G1 X149.592 Y133.412 E12.28205
G1 X148.979 Y133.746 E12.29446
G1 X148.332 Y134.008 E12.30687
G1 X147.66 Y134.193 E12.31926
G1 X146.971 Y134.301 E12.33165
G1 X146.377 Y134.33 E12.34223
G1 X86.623 Y134.33 E13.40441
G1 X85.926 Y134.29 E13.41682
G1 X85.239 Y134.171 E13.42922
G1 X84.57 Y133.973 E13.44162
G1 X83.927 Y133.701 E13.45403
G1 X83.321 Y133.357 E13.46641
G1 X82.757 Y132.945 E13.47883
G1 X82.317 Y132.546 E13.48939
G1 X82.194 Y132.423 E13.49248
G1 X81.729 Y131.902 E13.50489
G1 X81.328 Y131.332 E13.51728
G1 X80.994 Y130.719 E13.52969
G1 X80.732 Y130.072 E13.5421
G1 X80.547 Y129.4 E13.55449
G1 X80.439 Y128.711 E13.56689
G1 X80.41 Y128.117 E13.57746
G1 X80.41 Y68.363 E14.63964
G1 X80.45 Y67.666 E14.65205
G1 X80.569 Y66.979 E14.66445
G1 X80.767 Y66.31 E14.67685
G1 X81.039 Y65.667 E14.68926
G1 X81.383 Y65.061 E14.70165
G1 X81.795 Y64.497 E14.71406
M204 S625
M205 X6 Y6
G0 F4285.7 X81.801 Y65.19
M204 S500
M205 X5 Y5
G1 F1200 X82.21 Y64.655 E14.72603
G1 X82.491 Y64.354 E14.73335
G1 X82.614 Y64.231 E14.73645
G1 X83.117 Y63.784 E14.74841
G1 X83.67 Y63.4 E14.76038
G1 X84.265 Y63.084 E14.77235
G1 X84.892 Y62.841 E14.78431
G1 X85.544 Y62.674 E14.79627
G1 X86.212 Y62.585 E14.80825
G1 X86.623 Y62.57 E14.81556
G1 X91.377 Y62.57 E14.90007
G1 X92.049 Y62.61 E14.91203
G1 X92.712 Y62.729 E14.92401
G1 X92.993 Y62.815 E14.92923
G1 X93.544 Y62.674 E14.93934
G1 X94.212 Y62.585 E14.95132
G1 X94.623 Y62.57 E14.95863
G1 X99.363 Y62.57 E15.04289
G1 X100.035 Y62.61 E15.05486
G1 X100.698 Y62.729 E15.06683
G1 X101.341 Y62.926 E15.07878
G1 X101.957 Y63.198 E15.09075
G1 X102.536 Y63.541 E15.10272
G1 X103.071 Y63.95 E15.11469
G1 X103.372 Y64.231 E15.12201
G1 X103.495 Y64.354 E15.1251
G1 X103.942 Y64.857 E15.13706
G1 X104.326 Y65.41 E15.14903
G1 X104.642 Y66.005 E15.161
G1 X104.885 Y66.632 E15.17296
G1 X105.052 Y67.284 E15.18492
G1 X105.141 Y67.952 E15.1969
G1 X105.156 Y68.361 E15.20418
G1 X105.169 Y105.892 E15.87133
G1 X108.847 Y109.57 E15.96379
G1 X146.377 Y109.57 E16.63092
G1 X147.049 Y109.61 E16.64289
G1 X147.712 Y109.729 E16.65486
G1 X148.355 Y109.926 E16.66681
G1 X148.971 Y110.198 E16.67878
G1 X149.55 Y110.541 E16.69075
G1 X150.085 Y110.95 E16.70272
G1 X150.386 Y111.231 E16.71004
G1 X150.509 Y111.354 E16.71313
G1 X150.956 Y111.857 E16.72509
G1 X151.34 Y112.41 E16.73706
G1 X151.656 Y113.005 E16.74904
G1 X151.899 Y113.632 E16.76099
G1 X152.066 Y114.284 E16.77295
G1 X152.155 Y114.952 E16.78493
G1 X152.17 Y115.363 E16.79224
G1 X152.17 Y120.117 E16.87675
G1 X152.13 Y120.789 E16.88872
G1 X152.011 Y121.452 E16.90069
G1 X151.925 Y121.733 E16.90591
G1 X152.066 Y122.284 E16.91602
G1 X152.155 Y122.952 E16.928
G1 X152.17 Y123.363 E16.93531
G1 X152.17 Y128.117 E17.01982
G1 X152.13 Y128.789 E17.03179
G1 X152.011 Y129.452 E17.04376
G1 X151.814 Y130.095 E17.05572
G1 X151.542 Y130.711 E17.06769
G1 X151.199 Y131.29 E17.07965
G1 X150.79 Y131.825 E17.09162
G1 X150.509 Y132.126 E17.09894
G1 X150.386 Y132.249 E17.10203
G1 X149.883 Y132.696 E17.11399
G1 X149.33 Y133.08 E17.12596
G1 X148.735 Y133.396 E17.13794
G1 X148.108 Y133.639 E17.14989
G1 X147.456 Y133.806 E17.16185
G1 X146.788 Y133.895 E17.17383
G1 X146.377 Y133.91 E17.18114
G1 X86.623 Y133.91 E18.24333
G1 X85.951 Y133.87 E18.2553
G1 X85.288 Y133.751 E18.26727
G1 X84.645 Y133.554 E18.27922
G1 X84.029 Y133.282 E18.29119
G1 X83.45 Y132.939 E18.30316
G1 X82.915 Y132.53 E18.31513
G1 X82.614 Y132.249 E18.32245
G1 X82.491 Y132.126 E18.32554
G1 X82.044 Y131.623 E18.3375
G1 X81.66 Y131.07 E18.34947
G1 X81.344 Y130.475 E18.36145
G1 X81.101 Y129.848 E18.3734
G1 X80.934 Y129.196 E18.38536
G1 X80.845 Y128.528 E18.39734
G1 X80.83 Y128.117 E18.40465
G1 X80.83 Y68.363 E19.46684
G1 X80.87 Y67.691 E19.4788
G1 X80.989 Y67.028 E19.49078
G1 X81.186 Y66.385 E19.50273
G1 X81.458 Y65.769 E19.5147
G1 X81.801 Y65.19 E19.52667
M204 S625
M205 X6 Y6
G0 F4285.7 X82.219 Y65.324
M204 S500
M205 X5 Y5
G1 F1200 X82.788 Y64.651 E19.54233
G1 X82.911 Y64.528 E19.54542
G1 X83.396 Y64.099 E19.55693
G1 X83.931 Y63.733 E19.56846
G1 X84.506 Y63.436 E19.57996
G1 X85.114 Y63.212 E19.59148
G1 X85.745 Y63.064 E19.603
G1 X86.623 Y62.99 E19.61866
G1 X91.377 Y62.99 E19.70317
G1 X92.024 Y63.03 E19.71469
G1 X92.66 Y63.149 E19.72619
G1 X92.995 Y63.256 E19.73245
G1 X93.114 Y63.212 E19.7347
G1 X93.745 Y63.064 E19.74622
G1 X94.623 Y62.99 E19.76188
G1 X99.363 Y62.99 E19.84614
G1 X100.01 Y63.03 E19.85767
G1 X100.646 Y63.149 E19.86917
G1 X101.263 Y63.346 E19.88068
G1 X101.852 Y63.617 E19.89221
G1 X102.402 Y63.959 E19.90372
G1 X103.075 Y64.528 E19.91938
G1 X103.198 Y64.651 E19.92248
G1 X103.627 Y65.136 E19.93399
G1 X103.993 Y65.671 E19.94551
G1 X104.29 Y66.246 E19.95701
G1 X104.514 Y66.854 E19.96853
G1 X104.662 Y67.485 E19.98005
G1 X104.736 Y68.361 E19.99568
G1 X104.749 Y106.066 E20.66592
G1 X108.673 Y109.99 E20.76457
G1 X146.377 Y109.99 E21.43479
G1 X147.024 Y110.03 E21.44632
G1 X147.66 Y110.149 E21.45782
G1 X148.277 Y110.346 E21.46933
G1 X148.866 Y110.617 E21.48086
G1 X149.416 Y110.959 E21.49237
G1 X150.089 Y111.528 E21.50804
G1 X150.212 Y111.651 E21.51113
G1 X150.641 Y112.136 E21.52264
G1 X151.007 Y112.671 E21.53416
G1 X151.304 Y113.246 E21.54566
G1 X151.528 Y113.854 E21.55718
G1 X151.676 Y114.485 E21.5687
G1 X151.75 Y115.363 E21.58437
G1 X151.75 Y120.117 E21.66887
G1 X151.71 Y120.764 E21.6804
G1 X151.591 Y121.4 E21.6919
G1 X151.484 Y121.735 E21.69815
G1 X151.528 Y121.854 E21.7004
G1 X151.676 Y122.485 E21.71193
G1 X151.75 Y123.363 E21.72759
G1 X151.75 Y128.117 E21.8121
G1 X151.71 Y128.764 E21.82362
G1 X151.591 Y129.4 E21.83512
G1 X151.394 Y130.017 E21.84663
G1 X151.123 Y130.606 E21.85816
G1 X150.781 Y131.156 E21.86967
G1 X150.212 Y131.829 E21.88534
G1 X150.089 Y131.952 E21.88843
G1 X149.604 Y132.381 E21.89994
G1 X149.069 Y132.747 E21.91146
G1 X148.494 Y133.044 E21.92297
G1 X147.886 Y133.268 E21.93448
G1 X147.255 Y133.416 E21.94601
G1 X146.377 Y133.49 E21.96167
G1 X86.623 Y133.49 E23.02385
G1 X85.976 Y133.45 E23.03538
G1 X85.34 Y133.331 E23.04688
G1 X84.723 Y133.134 E23.05839
G1 X84.134 Y132.863 E23.06992
G1 X83.584 Y132.521 E23.08143
G1 X82.911 Y131.952 E23.0971
G1 X82.788 Y131.829 E23.10019
G1 X82.359 Y131.344 E23.1117
G1 X81.993 Y130.809 E23.12322
G1 X81.696 Y130.234 E23.13472
G1 X81.472 Y129.626 E23.14624
G1 X81.324 Y128.995 E23.15776
G1 X81.25 Y128.117 E23.17343
G1 X81.25 Y68.363 E24.23561
G1 X81.29 Y67.716 E24.24713
G1 X81.409 Y67.08 E24.25864
G1 X81.606 Y66.463 E24.27015
G1 X81.877 Y65.874 E24.28167
G1 X82.219 Y65.324 E24.29319
M204 S625
M205 X6 Y6
G0 F4285.7 X82.636 Y65.465
M204 S500
M205 X5 Y5
G1 F1200 X83.085 Y64.948 E24.30536
G1 X83.208 Y64.825 E24.30845
G1 X83.674 Y64.415 E24.31949
G1 X84.19 Y64.068 E24.33054
G1 X84.746 Y63.79 E24.34159
G1 X85.332 Y63.586 E24.35262
G1 X85.94 Y63.458 E24.36366
G1 X86.623 Y63.41 E24.37583
G1 X91.377 Y63.41 E24.46034
G1 X91.997 Y63.45 E24.47139
G1 X92.607 Y63.569 E24.48243
G1 X93.002 Y63.701 E24.48984
G1 X93.332 Y63.586 E24.49605
G1 X93.94 Y63.458 E24.50709
G1 X94.623 Y63.41 E24.51926
G1 X99.363 Y63.41 E24.60352
G1 X99.983 Y63.45 E24.61457
G1 X100.593 Y63.569 E24.62561
G1 X101.182 Y63.766 E24.63665
G1 X101.741 Y64.036 E24.64769
G1 X102.261 Y64.376 E24.65873
G1 X102.778 Y64.825 E24.67091
G1 X102.901 Y64.948 E24.674
G1 X103.311 Y65.414 E24.68503
G1 X103.658 Y65.93 E24.69608
G1 X103.936 Y66.486 E24.70713
G1 X104.14 Y67.072 E24.71816
G1 X104.268 Y67.68 E24.72921
G1 X104.316 Y68.361 E24.74134
G1 X104.329 Y106.24 E25.41468
G1 X108.499 Y110.41 E25.51951
G1 X146.377 Y110.41 E26.19283
G1 X146.997 Y110.45 E26.20387
G1 X147.607 Y110.569 E26.21492
G1 X148.196 Y110.766 E26.22596
G1 X148.755 Y111.036 E26.237
